X:1
T:Quid retribuam Domino
T:Giovanni Francesco Anerio arr. from ttbb BMarble
T:Quid retribuam Domino
T:Copyright © 2017 by CPDL.  This edition can be fully distributed, duplicated, performed, and recorded.
T:Copyright © 2017 by CPDL.  This edition can be fully distributed, duplicated, performed, and recorded.
T:Copyright © 2017 by CPDL.  This edition can be fully distributed, duplicated, performed, and recorded.
T:Copyright © 2017 by CPDL.  This edition can be fully distributed, duplicated, performed, and recorded.
T:Copyright © 2017 by CPDL.  This edition can be fully distributed, duplicated, performed, and recorded.
C:Giovanni Francesco Anerio
C:arr. from ttbb BMarble
Z:Copyright © 2017 by CPDL.  This edition can be fully distributed, duplicated, performed, and recorded.
%%score [ 1 2 3 4 ]
L:1/8
Q:1/2=84
M:4/2
K:Eb
V:1 treble nm="Soprano" snm="S."
V:2 treble nm="Alto" snm="A."
V:3 treble-8 transpose=-12 nm="Tenor" snm="T."
V:4 bass nm="Bass" snm="B."
V:1
"^Psalm 116: 12-13:How can I repay the Lordfor all the good He has done for me?I will raise the cup of salvationand I will call on the name of the Lord." F8 F4 G4- | %1
w: Quid re- tri-|
 G4 F4 A4 G4- | G4 F4 F8- | F4 F4 A8- | A4 A4 G4 G4- | G2 F2 =E4 E2 F2 G4 | F4 F4 (G6 F2 | %7
w: * bu- am Do-|* mi- no|_ pro o-|* mni- bus, quae|* re- tri bu- it mi-|hi pro o- *|
 E4) E4 D4 F4- | F2 E2 D4 D2 C2 =B,4 | C8 _E2 EE E2 F2 | G4 F2 E2 (F2 E2 E4-) | E4 D4 E2 E2 G2 A2 | %12
w: * mni- bus, quae|_ re- tri- bu- it mi-|hi? Ca- li- cem sa- lu-|ta- ris ac- ci- * *|* pi- am et no- men|
 B2 BB B2 A2 (F4 D4) | C2 C2 C2 D2 E2 EE G2 G2 | _A8 G2 G2 B2 A2 | F2 FF A2 A2 G8 | %16
w: Do- mi- ni in- vo- ca- *|bo, et no- men Do- mi- ni in- vo-|ca- bo, et no- men|Do- mi- ni in- vo- ca-|
 F8 z2 C2 E2 F2 | G2 GG B2 G2 F8- | F16 | F16 |] %20
w: bo, et no- men|Do- mi- ni in- vo- ca-||bo.|
V:2
 D8 F4 E4- | E2 E2 F4 E8- | E4 D4 C8 | D8 (E8 | F6) F2 B,4 B4- | B2 A2 G4 G2 F2 =E4 | %6
w: Quid re- tri-|* bu- am Do-|* mi- no|pro o-|* mni- bus, quae|* re- tri bu- it mi-|
 F4 C4 (_E2 DC B,4-) | B,4 =A,4 B,4 D4- | D2 C2 =B,4 B,2 C2 D4 | =E8 C2 CC C2 C2 | E4 F2 G2 (A8 | %11
w: hi pro o- * * *|* mni- bus, quae|_ re- tri- bu- it mi-|hi? Ca- li- cem sa- lu-|ta- ris ac- ci-|
 F6) F2 G2 G2 E2 F2 | G2 GG G2 F2 (D4 F4) | F8 z2 B,2 D2 E2 | F2 FF F2 F2 B,4 E4 | %15
w: * pi- am et no- men|Do- mi- ni in- vo- ca- *|bo, et no- men|Do- mi- ni in- vo- ca- bo,|
 z2 D2 E2 (F4 =ED E4) | F2 A2 F2 G2 A2 AA G2 F2 | (E4 F2 ED) C2 C2 =A,2 B,2 | C2 CC =A,2 B,2 C8 | %19
w: in- vo- ca- * * *|bo, et no- men Do- mi- ni in- vo-|ca- * * * bo, et no- men|Do- mi- ni in- vo- ca-|
 D16 |] %20
w: bo.|
V:3
 B8 B4 B4- | B2 B2 B4 (c8 | B6) B2 F8 | z4 B4 (c6 B2 | c4) d4 e8 | z16 | z4 A4 B8- | c6 c2 F4 B4- | %8
w: Quid re- tri-|* bu- am Do-|* mi- no|pro o- *|* mni- bus,||pro o-|* mni- bus, quae|
 B2 c2 G4 G2 A2 G4 | C8 G2 GG G2 A2 | B4 B2 B2 c8- | B6 B2 B8 | z2 E2 G2 A2 B2 BB B2 B2 | %13
w: _ re- tri- bu- it mi-|hi? Ca- li- cem sa- lu-|ta- ris ac- ci-|* pi- am|et no- men Do- mi- ni in- vo-|
 !courtesy!=A8 B8 | z2 A2 c2 d2 e2 ee B2 c2 | d4 c4 z8 | z2 c2 A2 B2 c2 cc B4- | %17
w: ca- bo,|et no- men Do- mi- ni in- vo-|ca- bo,|et no- men Do- mi- ni in-|
 B2 B2 B4 =A2 A2 c2 B2 | =A2 AA c2 B2 (A2 B4 A2) | B16 |] %20
w: * vo- ca- bo, et no- men|Do- mi- ni in- vo- ca- * *|bo.|
V:4
 B,,8 D,4 E,4- | E,2 E,2 D,4 (C,2 D,2 E,2 F,2 | G,2 =A,2 B,8) A,4 | B,4 B,4 (_A,6 G,2 | %4
w: Quid re- tri-|* bu- am Do- * * *|* * * mi-|no pro o- *|
 F,4) F,4 E,4 E,4- | E,2 F,2 C,4 C,2 _D,2 C,4 | F,4 F,4 (E,6 D,2 | C,4) C,4 B,,8 | z16 | %9
w: * mni- bus, quae|* re- tri bu- it mi-|hi pro o- *|* mni- bus,||
 z8 C,2 C,C, C,2 F,2 | E,4 D,2 E,2 (A,,8 | B,,6) B,,2 E,8- | E,4 z4 z2 B,,2 D,2 E,2 | %13
w: Ca- li- cem sa- lu-|ta- ris ac- ci-|* pi- am|_ et no- men|
 F,2 F,F, F,2 F,2 (G,8 | F,8) E,2 E,2 G,2 A,2 | B,2 B,B, A,2 F,2 C8 | F,8 z2 F,2 E,2 D,2 | %17
w: Do- mi- ni in- vo- ca-|* bo, et no- men|Do- mi- ni in- vo- ca-|bo, et no- men|
 E,2 E,E, D,2 E,2 F,8- | F,16 | B,,16 |] %20
w: Do- mi- ni in- vo- ca-||bo.|

